img/letter.svg

<svg width="199" height="135" viewBox="0 0 199 135" fill="none" xmlns="http://www.w3.org/2000/svg">
<path d="M113.231 49.4592L145.758 36.4847L198.141 15.5832L198.204 14.7388L120.309 13.05L113.269 49.2891L113.231 49.4592Z" fill="#567EA6"/>
<path d="M113.231 49.4592L145.758 36.4848L134.735 28.9988L113.269 49.2891L113.231 49.4592Z" fill="#3E6387"/>
<path d="M198.198 14.7389L134.735 28.9988L160.519 47.6445L199 14.8586L198.198 14.7389Z" fill="#6699CB"/>
<path d="M94.626 0L119.438 17.9399L199 14.8586L94.626 0Z" fill="#7BA7D3"/>
<path d="M75.6535 135C74.3719 134.924 73.0776 134.729 71.8023 134.42C71.4614 134.338 71.253 133.998 71.3414 133.658C71.4235 133.318 71.7644 133.11 72.1053 133.198C73.3049 133.488 74.5234 133.677 75.7292 133.746C76.0765 133.765 76.3417 134.067 76.3227 134.414C76.3038 134.748 76.026 135.006 75.6914 135.006C75.6787 135 75.6661 135 75.6535 135ZM79.4731 134.231C79.4163 133.891 79.6436 133.563 79.9845 133.5C81.1714 133.292 82.3647 132.971 83.52 132.542C83.8483 132.423 84.2082 132.587 84.3345 132.914C84.4544 133.242 84.2903 133.601 83.962 133.727C82.7309 134.187 81.4619 134.527 80.1992 134.748C80.1613 134.754 80.1234 134.754 80.0918 134.754C79.7951 134.754 79.5236 134.54 79.4731 134.231ZM67.5281 132.921C66.3727 132.385 65.23 131.742 64.1441 131.024C63.8536 130.829 63.7779 130.438 63.9673 130.148C64.163 129.858 64.5544 129.782 64.8449 129.972C65.8803 130.658 66.9599 131.27 68.0584 131.774C68.3741 131.919 68.513 132.297 68.3678 132.612C68.2604 132.845 68.0331 132.977 67.7932 132.977C67.7048 132.977 67.6165 132.958 67.5281 132.921ZM87.1692 131.522C86.9861 131.225 87.0745 130.835 87.3713 130.652C88.413 130.003 89.4042 129.266 90.3196 128.453C90.5785 128.22 90.9825 128.245 91.2098 128.503C91.4434 128.762 91.4182 129.159 91.1593 129.392C90.1934 130.249 89.1453 131.03 88.0405 131.717C87.9395 131.78 87.8195 131.812 87.7059 131.812C87.4912 131.818 87.2892 131.717 87.1692 131.522ZM60.6085 128.207C59.6741 127.331 58.7903 126.373 57.9821 125.365C57.7612 125.094 57.8054 124.697 58.0831 124.477C58.3546 124.263 58.7524 124.3 58.9733 124.578C59.7436 125.542 60.5896 126.449 61.4798 127.293C61.7323 127.533 61.7449 127.93 61.505 128.182C61.3788 128.314 61.2146 128.377 61.0442 128.377C60.8863 128.377 60.7348 128.321 60.6085 128.207ZM93.3438 126.191C93.066 125.983 93.0029 125.586 93.2112 125.309C93.9499 124.313 94.5875 123.261 95.1052 122.183C95.2568 121.868 95.6356 121.736 95.9449 121.887C96.2606 122.038 96.3932 122.41 96.2417 122.725C95.6924 123.878 95.0105 125 94.2214 126.058C94.0951 126.222 93.9057 126.31 93.7163 126.31C93.5837 126.31 93.4511 126.273 93.3438 126.191ZM55.4567 121.629C54.8191 120.501 54.2572 119.322 53.7963 118.138C53.67 117.816 53.8279 117.451 54.1562 117.325C54.4782 117.199 54.8443 117.356 54.9706 117.684C55.4126 118.818 55.9429 119.94 56.5553 121.017C56.7258 121.32 56.6184 121.704 56.3154 121.874C56.2144 121.931 56.1133 121.956 56.006 121.956C55.785 121.95 55.5704 121.836 55.4567 121.629ZM96.9425 118.9C96.6015 118.831 96.3805 118.503 96.4437 118.163C96.6457 117.155 96.7467 116.127 96.7467 115.113V114.974C96.7467 114.829 96.7404 114.691 96.7404 114.546C96.7278 114.199 96.9993 113.909 97.3528 113.897C97.719 113.865 97.9905 114.155 98.0031 114.508C98.0094 114.659 98.0094 114.811 98.0157 114.962V115.113C98.0157 116.209 97.9084 117.318 97.6874 118.409C97.6306 118.711 97.3654 118.919 97.0687 118.919C97.0245 118.913 96.9866 118.906 96.9425 118.9ZM52.521 113.809C52.2685 112.574 52.0854 111.288 51.9907 109.99C51.9654 109.643 52.2243 109.341 52.5715 109.316C52.9124 109.291 53.2218 109.549 53.247 109.895C53.3417 111.137 53.5122 112.372 53.7584 113.557C53.8279 113.897 53.6069 114.231 53.266 114.3C53.2218 114.306 53.1839 114.313 53.1397 114.313C52.843 114.313 52.5841 114.105 52.521 113.809ZM0.315063 114.098C0.0120175 113.928 -0.0953112 113.544 0.0814654 113.241C0.428705 112.643 0.782259 112.044 1.14213 111.458C1.32522 111.162 1.71665 111.067 2.01338 111.257C2.31011 111.439 2.3985 111.83 2.21541 112.126C1.85555 112.706 1.50831 113.286 1.17369 113.872C1.06005 114.073 0.845393 114.187 0.624422 114.187C0.523407 114.18 0.416078 114.155 0.315063 114.098ZM96.0901 110.343C95.7745 109.196 95.3388 108.043 94.8022 106.915C94.6507 106.6 94.7832 106.222 95.0989 106.077C95.4146 105.926 95.7934 106.058 95.9386 106.373C96.5131 107.57 96.974 108.793 97.3086 110.009C97.4033 110.343 97.2013 110.689 96.8667 110.784C96.8099 110.797 96.753 110.809 96.6962 110.809C96.4247 110.803 96.1722 110.62 96.0901 110.343ZM3.78115 108.635C3.49704 108.427 3.44022 108.037 3.64857 107.753C4.39987 106.726 5.19536 105.718 6.0098 104.747C6.23708 104.483 6.62852 104.445 6.89999 104.672C7.16516 104.898 7.20304 105.295 6.97576 105.56C6.18026 106.512 5.39739 107.501 4.65872 108.503C4.53245 108.673 4.34305 108.761 4.14733 108.761C4.02737 108.761 3.89479 108.717 3.78115 108.635ZM52.5399 106.159C52.1927 106.14 51.9275 105.844 51.9402 105.497C52.0096 104.249 52.1422 102.964 52.3442 101.678C52.3947 101.332 52.723 101.105 53.064 101.149C53.4112 101.2 53.6448 101.521 53.5943 101.868C53.3986 103.115 53.2723 104.363 53.2028 105.566C53.1839 105.9 52.9061 106.165 52.5715 106.165C52.5652 106.159 52.5526 106.159 52.5399 106.159ZM92.6051 103.222C91.9106 102.252 91.1278 101.288 90.2691 100.349C90.0355 100.091 90.0545 99.6936 90.307 99.4604C90.5659 99.2273 90.9636 99.2462 91.1972 99.4982C92.0874 100.469 92.9081 101.477 93.6342 102.491C93.8362 102.775 93.7731 103.166 93.489 103.374C93.3753 103.449 93.2491 103.493 93.1228 103.493C92.9208 103.487 92.7314 103.392 92.6051 103.222ZM9.015 102.334C8.76878 102.088 8.76246 101.691 9.00237 101.445C9.89257 100.538 10.8206 99.6432 11.7614 98.7988C12.0202 98.5656 12.418 98.5845 12.6515 98.8429C12.8851 99.1012 12.8662 99.4982 12.6074 99.7314C11.6856 100.563 10.7765 101.433 9.9052 102.321C9.77893 102.447 9.61478 102.51 9.45063 102.51C9.29911 102.517 9.14127 102.454 9.015 102.334ZM53.7079 98.0615C53.3733 97.9733 53.165 97.633 53.2534 97.2928C53.5627 96.0892 53.9352 94.8541 54.3519 93.6254C54.4655 93.2977 54.8191 93.1213 55.1537 93.2284C55.482 93.3418 55.6588 93.701 55.5515 94.0287C55.1474 95.2259 54.7812 96.4295 54.4782 97.6078C54.4024 97.8914 54.1499 98.0804 53.8658 98.0804C53.8089 98.0867 53.7584 98.0804 53.7079 98.0615ZM87.144 97.3369C86.2222 96.5429 85.231 95.7741 84.2019 95.0432C83.9178 94.8415 83.8547 94.4446 84.0567 94.1673C84.2587 93.8837 84.6565 93.8207 84.9343 94.0224C85.9886 94.7722 87.0114 95.5725 87.9647 96.3854C88.2299 96.6122 88.2615 97.0092 88.0342 97.2739C87.9079 97.4188 87.7311 97.4944 87.5543 97.4944C87.4091 97.4881 87.2639 97.444 87.144 97.3369ZM15.0759 96.8202C14.8613 96.5429 14.9118 96.1459 15.1896 95.938C16.1934 95.1566 17.2351 94.4067 18.2895 93.6947C18.5799 93.4994 18.9713 93.575 19.167 93.8648C19.3627 94.1547 19.287 94.5454 18.9966 94.7407C17.9675 95.4339 16.951 96.1774 15.9661 96.9399C15.8525 97.0281 15.7136 97.0722 15.581 97.0722C15.3853 97.0659 15.2022 96.9777 15.0759 96.8202ZM80.5338 92.6928C79.4668 92.069 78.3556 91.4703 77.2382 90.9158C76.9288 90.7583 76.7962 90.3802 76.9541 90.0714C77.1119 89.7627 77.4907 89.6303 77.8001 89.7879C78.9428 90.355 80.0729 90.9662 81.1714 91.6026C81.4745 91.7791 81.5755 92.1635 81.3987 92.4659C81.2788 92.6676 81.0704 92.781 80.8558 92.781C80.7421 92.7747 80.6348 92.7495 80.5338 92.6928ZM21.8376 92.1824C21.6608 91.8799 21.7682 91.4955 22.0712 91.3191C23.1761 90.6827 24.3125 90.0777 25.4489 89.5169C25.7646 89.3657 26.1434 89.4917 26.2949 89.8005C26.4528 90.1155 26.3202 90.4936 26.0108 90.6448C24.8996 91.1931 23.7885 91.7854 22.7026 92.4092C22.6015 92.4659 22.4942 92.4911 22.3869 92.4911C22.1659 92.4974 21.9513 92.384 21.8376 92.1824ZM56.2775 90.292C55.9555 90.1533 55.8103 89.7879 55.9429 89.4665C56.1197 89.0569 56.2964 88.6536 56.4795 88.2503C56.8205 87.5005 57.1803 86.7443 57.5528 86.0007C57.7107 85.692 58.0895 85.5597 58.3988 85.7172C58.7145 85.8747 58.8408 86.2528 58.6829 86.5616C58.3167 87.2925 57.9632 88.0361 57.6286 88.767C57.4518 89.164 57.275 89.561 57.1046 89.958C57.0035 90.1974 56.77 90.3424 56.5237 90.3424C56.448 90.3424 56.3596 90.3298 56.2775 90.292ZM73.2544 89.1199C72.099 88.6536 70.9184 88.2188 69.7378 87.8281C69.4095 87.721 69.2264 87.3618 69.34 87.0342C69.4474 86.7065 69.8072 86.5301 70.1355 86.6372C71.3414 87.0342 72.5473 87.4816 73.7279 87.9605C74.0499 88.0928 74.2077 88.4583 74.0751 88.7796C73.9741 89.0254 73.7405 89.1703 73.488 89.1703C73.4122 89.164 73.3364 89.1514 73.2544 89.1199ZM29.1739 88.5213C29.0413 88.1999 29.1991 87.8344 29.5211 87.7021C30.7017 87.2295 31.9139 86.7884 33.1198 86.3914C33.4481 86.2843 33.8079 86.4608 33.9153 86.7947C34.0226 87.1224 33.8458 87.4816 33.5112 87.5887C32.3369 87.9731 31.15 88.4079 29.9946 88.8679C29.9188 88.8994 29.8368 88.912 29.761 88.912C29.5085 88.9183 29.2686 88.767 29.1739 88.5213ZM65.5456 86.6057C64.3398 86.3032 63.1087 86.0323 61.8838 85.8054C61.5429 85.7424 61.3156 85.4147 61.3788 85.0682C61.4419 84.7279 61.7765 84.501 62.1174 84.564C63.3675 84.7972 64.6302 85.0682 65.855 85.3769C66.1959 85.4588 66.398 85.8054 66.3159 86.1394C66.2464 86.4229 65.9876 86.6183 65.7035 86.6183C65.6467 86.6246 65.5962 86.6183 65.5456 86.6057ZM36.952 85.9314C36.8699 85.5912 37.0783 85.2509 37.4192 85.169C38.6503 84.8728 39.913 84.6082 41.1694 84.3939C41.5166 84.3372 41.8386 84.564 41.9018 84.9106C41.9586 85.2509 41.7313 85.5786 41.3841 85.6416C40.1529 85.8558 38.9218 86.1079 37.716 86.3977C37.6654 86.4103 37.6149 86.4166 37.5644 86.4166C37.2803 86.4103 37.0215 86.2213 36.952 85.9314ZM57.5591 85.169C56.3217 85.0303 55.0653 84.9358 53.8216 84.8791C53.4743 84.8602 53.2029 84.5704 53.2218 84.2238C53.2407 83.8772 53.5122 83.5936 53.8847 83.6251C55.1537 83.6819 56.4353 83.7827 57.698 83.9213C58.0453 83.9591 58.2978 84.2679 58.2536 84.6145C58.2157 84.9358 57.9443 85.1753 57.6286 85.1753C57.6033 85.1753 57.5844 85.169 57.5591 85.169ZM45.0269 84.4947C44.9954 84.1482 45.2479 83.8394 45.5951 83.8079C46.8515 83.6882 48.1395 83.6125 49.4148 83.5747C49.7683 83.581 50.0524 83.8394 50.0651 84.186C50.0777 84.5325 49.7999 84.8224 49.4527 84.835C48.2026 84.8728 46.9462 84.9484 45.7151 85.0619C45.6962 85.0619 45.6772 85.0619 45.6583 85.0619C45.33 85.0682 45.0522 84.8224 45.0269 84.4947ZM59.9014 82.9446C59.5984 82.7682 59.4974 82.3838 59.6741 82.0813C60.3118 80.9912 60.9873 79.9011 61.6881 78.8424C61.8775 78.5526 62.269 78.4706 62.5657 78.666C62.8561 78.855 62.9382 79.2457 62.7425 79.5419C62.0543 80.5816 61.3914 81.6528 60.7601 82.7241C60.6401 82.9257 60.4318 83.0391 60.2171 83.0391C60.1098 83.0328 60.0024 83.0013 59.9014 82.9446ZM64.384 76.095C64.1062 75.8871 64.0494 75.4901 64.2577 75.2129C65.0216 74.2046 65.8234 73.2027 66.6442 72.2323C66.8715 71.9677 67.2692 71.9299 67.5344 72.1567C67.7996 72.3836 67.8374 72.7805 67.6101 73.0452C66.802 73.9967 66.0128 74.986 65.2679 75.9753C65.1416 76.1391 64.9522 76.2274 64.7628 76.2274C64.6302 76.2211 64.4976 76.177 64.384 76.095ZM69.6431 69.8063C69.3905 69.5668 69.3842 69.1699 69.6241 68.9178C70.5017 67.9978 71.4108 67.0967 72.3326 66.2271C72.5851 65.9877 72.9892 66.0003 73.2228 66.2523C73.4627 66.5044 73.4501 66.9077 73.1976 67.1408C72.2947 67.9915 71.3982 68.88 70.5333 69.7811C70.407 69.9134 70.2429 69.9764 70.0787 69.9764C69.9272 69.9827 69.7693 69.926 69.6431 69.8063ZM75.5904 64.1666C75.3694 63.9019 75.4009 63.505 75.6724 63.2781C76.6447 62.4652 77.6548 61.6713 78.6713 60.9151C78.9491 60.7072 79.3469 60.7639 79.5552 61.0411C79.7635 61.3184 79.7067 61.7154 79.4289 61.9233C78.4314 62.6669 77.4402 63.4482 76.4869 64.2485C76.3669 64.3493 76.228 64.3934 76.0828 64.3934C75.8934 64.3934 75.7166 64.3178 75.5904 64.1666ZM82.1311 59.2263C81.9417 58.9365 82.0174 58.5458 82.3079 58.3568C83.3685 57.6636 84.4607 56.9831 85.553 56.3403C85.856 56.1639 86.2411 56.2647 86.4179 56.5672C86.5947 56.8696 86.4937 57.254 86.1906 57.4305C85.1174 58.0606 84.0441 58.7285 83.0023 59.4091C82.895 59.4784 82.7751 59.5162 82.6551 59.5162C82.4531 59.5099 82.251 59.4091 82.1311 59.2263ZM89.1895 55.0549C89.0317 54.7461 89.158 54.368 89.4673 54.2105C90.6037 53.6371 91.7654 53.0888 92.9208 52.5784C93.2428 52.4398 93.6153 52.5847 93.7542 52.8998C93.8931 53.2212 93.7478 53.5929 93.4322 53.7316C92.2957 54.2294 91.153 54.7713 90.0418 55.3321C89.9471 55.3762 89.8524 55.4014 89.7577 55.4014C89.5241 55.4014 89.3032 55.2754 89.1895 55.0549ZM96.6836 51.7151C96.5636 51.3875 96.7341 51.0283 97.0561 50.9086C98.2556 50.4675 99.4741 50.0579 100.68 49.6924C101.008 49.5916 101.368 49.7806 101.469 50.1083C101.57 50.4423 101.381 50.7951 101.052 50.896C99.8656 51.2551 98.6723 51.6584 97.498 52.0932C97.4286 52.1184 97.3528 52.131 97.2834 52.131C97.0182 52.131 96.7783 51.9735 96.6836 51.7151ZM104.512 49.2891C104.43 48.9489 104.645 48.6086 104.979 48.533C106.217 48.2431 107.48 47.9847 108.723 47.7642C109.071 47.7012 109.393 47.9343 109.456 48.2746C109.519 48.6149 109.285 48.9425 108.944 49.0056C107.72 49.2198 106.482 49.4719 105.27 49.7617C105.219 49.7743 105.175 49.7806 105.125 49.7806C104.841 49.7743 104.582 49.579 104.512 49.2891Z" fill="#AFD5E6"/>
</svg>

<svg width="199" height="135" fill="none" xmlns="http://www.w3.org/2000/svg"><path d="M113.231 49.46l32.527-12.975 52.383-20.902.063-.844-77.895-1.689-7.04 36.24-.038.17z" fill="#567EA6"/><path d="M113.231 49.46l32.527-12.975-11.023-7.486-21.466 20.29-.038.17z" fill="#3E6387"/><path d="M198.198 14.739l-63.463 14.26 25.784 18.646L199 14.858l-.802-.12z" fill="#6699CB"/><path d="M94.626 0l24.812 17.94L199 14.859 94.626 0z" fill="#7BA7D3"/><path d="M75.653 135a21.898 21.898 0 01-3.85-.58.622.622 0 01-.462-.762.624.624 0 01.764-.46c1.2.29 2.418.479 3.624.548a.63.63 0 01-.038 1.26c-.012-.006-.025-.006-.037-.006zm3.82-.769a.638.638 0 01.511-.731 20.226 20.226 0 003.536-.958.638.638 0 01.815.372.634.634 0 01-.373.813c-1.231.46-2.5.8-3.763 1.021-.038.006-.076.006-.107.006a.628.628 0 01-.619-.523zm-11.945-1.31a26.063 26.063 0 01-3.384-1.897.636.636 0 01-.177-.876.638.638 0 01.878-.176 23.897 23.897 0 003.213 1.802.634.634 0 01.31.838.627.627 0 01-.575.365.682.682 0 01-.265-.056zm19.641-1.399a.632.632 0 01.202-.87 21.826 21.826 0 002.949-2.199.63.63 0 01.84.939 23.041 23.041 0 01-3.12 2.325.642.642 0 01-.334.095.6.6 0 01-.537-.29zm-26.56-3.315a27.42 27.42 0 01-2.627-2.842.634.634 0 01.991-.787c.77.964 1.617 1.871 2.507 2.715a.628.628 0 01-.436 1.084.641.641 0 01-.435-.17zm32.735-2.016a.632.632 0 01-.133-.882 19.277 19.277 0 001.894-3.126.63.63 0 011.137.542 19.957 19.957 0 01-2.02 3.333.64.64 0 01-.878.133zm-37.887-4.562a27.162 27.162 0 01-1.66-3.491.625.625 0 01.36-.813.627.627 0 01.814.359 25.486 25.486 0 001.584 3.333.629.629 0 11-1.098.612zm41.485-2.729a.634.634 0 01-.498-.737 15.57 15.57 0 00.303-3.05v-.139c0-.145-.007-.283-.007-.428a.628.628 0 01.613-.649c.366-.032.638.258.65.611.006.151.006.303.013.454v.151c0 1.096-.108 2.205-.329 3.296a.628.628 0 01-.618.51l-.127-.019zm-44.421-5.091a30.068 30.068 0 01-.53-3.819.628.628 0 01.58-.674c.341-.025.65.233.676.579.095 1.242.265 2.477.511 3.662a.63.63 0 01-.492.743c-.044.006-.082.013-.126.013a.634.634 0 01-.619-.504zm-52.206.289a.622.622 0 01-.234-.857c.348-.598.701-1.197 1.061-1.783a.628.628 0 01.871-.201.63.63 0 01.202.869c-.36.58-.707 1.16-1.041 1.746a.63.63 0 01-.55.315.727.727 0 01-.309-.089zm95.775-3.755a20.967 20.967 0 00-1.288-3.428.623.623 0 01.297-.838.626.626 0 01.84.296 21.807 21.807 0 011.37 3.636.632.632 0 01-.613.8.652.652 0 01-.606-.466zm-92.309-1.708a.626.626 0 01-.132-.882 57.829 57.829 0 012.36-3.006.632.632 0 01.967.813 61.89 61.89 0 00-2.317 2.943.632.632 0 01-.512.258.642.642 0 01-.366-.126zm48.759-2.476a.637.637 0 01-.6-.662c.07-1.248.202-2.533.404-3.819a.638.638 0 01.72-.529.63.63 0 01.53.719 38.155 38.155 0 00-.391 3.698.635.635 0 01-.632.599c-.006-.006-.018-.006-.031-.006zm40.065-2.937a31.12 31.12 0 00-2.336-2.873.633.633 0 01.038-.889.636.636 0 01.89.038c.89.971 1.711 1.979 2.437 2.993a.635.635 0 01-.511 1.002.665.665 0 01-.518-.271zm-83.59-.888a.633.633 0 01-.013-.889 60.754 60.754 0 012.76-2.646.63.63 0 01.845.932 61.727 61.727 0 00-2.702 2.59.642.642 0 01-.454.189.601.601 0 01-.436-.176zm44.693-4.273a.632.632 0 01-.455-.768c.31-1.204.682-2.439 1.099-3.668a.639.639 0 01.802-.397.64.64 0 01.397.8c-.404 1.198-.77 2.401-1.073 3.58a.633.633 0 01-.612.472.332.332 0 01-.158-.019zm33.436-.724a40.1 40.1 0 00-2.942-2.294.629.629 0 01.732-1.02 44.02 44.02 0 013.03 2.362.629.629 0 11-.82.952zm-72.068-.517a.624.624 0 01.114-.882 56.842 56.842 0 013.1-2.243.631.631 0 11.707 1.046 56.976 56.976 0 00-3.03 2.199.633.633 0 01-.386.132.67.67 0 01-.505-.252zm65.458-4.127a55.044 55.044 0 00-3.296-1.777.63.63 0 11.562-1.128 59.625 59.625 0 013.371 1.815.633.633 0 01-.316 1.178.725.725 0 01-.321-.088zm-58.696-.51a.63.63 0 01.233-.864 59.94 59.94 0 013.378-1.802.635.635 0 01.846.284.627.627 0 01-.284.844 59.688 59.688 0 00-3.308 1.764.639.639 0 01-.316.082.61.61 0 01-.55-.309zm34.44-1.891a.632.632 0 01-.335-.826A66.594 66.594 0 0157.553 86a.633.633 0 01.846-.283.625.625 0 01.284.845c-.366.73-.72 1.474-1.054 2.205-.177.397-.354.794-.524 1.191a.63.63 0 01-.827.334zm16.976-1.172a58.75 58.75 0 00-3.516-1.292.625.625 0 01-.398-.794.632.632 0 01.795-.397c1.206.397 2.412.845 3.593 1.323a.628.628 0 01-.24 1.21.82.82 0 01-.234-.05zm-44.08-.599a.628.628 0 01.347-.819 61.37 61.37 0 013.599-1.31.63.63 0 11.391 1.197c-1.174.384-2.361.819-3.516 1.279a.614.614 0 01-.234.044.613.613 0 01-.587-.39zm36.372-1.915a60.104 60.104 0 00-3.662-.8.632.632 0 11.233-1.242c1.25.233 2.513.504 3.738.813a.63.63 0 01-.151 1.241.436.436 0 01-.158-.012zm-28.594-.675a.63.63 0 01.467-.762 57.305 57.305 0 013.75-.775c.348-.057.67.17.733.517a.638.638 0 01-.518.73 59.07 59.07 0 00-3.668.757.639.639 0 01-.764-.466zm20.607-.762a56.973 56.973 0 00-3.737-.29.627.627 0 01-.6-.655c.019-.347.29-.63.663-.599 1.269.057 2.55.158 3.813.296.347.038.6.347.556.694a.633.633 0 01-.625.56c-.026 0-.045-.006-.07-.006zm-12.532-.674a.63.63 0 01.568-.687 58.9 58.9 0 013.82-.233c.353.006.637.264.65.611a.633.633 0 01-.612.649 60.94 60.94 0 00-3.738.227h-.057a.617.617 0 01-.631-.567zm14.874-1.55a.629.629 0 01-.227-.864 69.119 69.119 0 012.014-3.239.63.63 0 01.878-.176c.29.189.372.58.176.876a72.091 72.091 0 00-1.982 3.182.633.633 0 01-.543.315.732.732 0 01-.316-.094zm4.483-6.85a.631.631 0 01-.126-.882 71.37 71.37 0 012.386-2.98.632.632 0 01.966.812 64.294 64.294 0 00-2.342 2.93.64.64 0 01-.505.252.705.705 0 01-.379-.132zm5.26-6.289a.627.627 0 01-.02-.888 72.63 72.63 0 012.709-2.69.63.63 0 01.865.913c-.903.85-1.8 1.739-2.665 2.64a.623.623 0 01-.454.195.599.599 0 01-.436-.17zm5.946-5.64a.63.63 0 01.082-.888 67.602 67.602 0 013-2.363.631.631 0 01.758 1.008 65.214 65.214 0 00-2.943 2.326.613.613 0 01-.404.144.629.629 0 01-.493-.226zm6.541-4.94a.627.627 0 01.177-.87 81.733 81.733 0 013.245-2.016.631.631 0 11.638 1.09 78.936 78.936 0 00-3.189 1.98.642.642 0 01-.347.106.652.652 0 01-.524-.29zm7.058-4.171a.629.629 0 01.278-.844 74.745 74.745 0 013.454-1.633.635.635 0 01.833.322.633.633 0 01-.322.832 69.149 69.149 0 00-3.39 1.6.636.636 0 01-.852-.277zm7.495-3.34a.63.63 0 01.372-.806c1.2-.441 2.418-.851 3.624-1.217.328-.1.688.089.789.416a.633.633 0 01-.417.788c-1.186.36-2.38.762-3.554 1.197a.632.632 0 01-.814-.378zm7.828-2.426a.626.626 0 01.467-.756 70.599 70.599 0 013.744-.769c.348-.063.67.17.733.51a.634.634 0 01-.512.732 61.348 61.348 0 00-3.674.756.579.579 0 01-.145.019.646.646 0 01-.613-.492z" fill="#AFD5E6"/></svg>
